!!!OTL@@DE: Schweizer Heimweh
!!!COM: Gl&uuml;ck
!!!ODT: 1814
!!!OMD: Langsam
!!!LYR: Wyss der J&uuml;ngere, Johann Rudolf
!!!ONB: Urspr&uuml;glich in Berner Mundart
!!!OCL: Erk, Ludwig
!!!GCO: Deutscher Liederschatz, Band 1
**kern	**kern	**kern
*staff3	*staff2	*staff1
*Ipiano	*Ipiano	*Ivox
*clefF4	*clefG2	*clefG2
*k[b-e-a-]	*k[b-e-a-]	*k[b-e-a-]
*E-:	*E-:	*E-:
*met(C)	*met(C)	*met(C)
*M4/4	*M4/4	*M4/4
*MM54	*MM54	*MM54
4r	4r	8.g/
.	.	16a-/
=1	=1	=1
2EE-/	8r	4.b-\
.	(8B-/L	.
.	8e-/ 8g/	.
.	8B-/J)	8b-\
2E-\	8r	8an\L
.	(8B-/L	8b-\
.	8e-/ 8g/	8cc\J
.	8B-/J)	8b-\
=2	=2	=2
2BBB-/	8r	(8b-/L
.	(8B-/L	8a-/J)
.	8d/ 8a-/	4a-X/
.	8B-/J)	.
2BB-/	8r	4r
.	(8B-/L	.
.	8d/ 8a-/	8a-/
.	8B-/J)	8a-/
=3	=3	=3
2BBB-/	8r	8a-/L
.	(8B-/L	8f/J
.	8A-/ 8d/	8f/L
.	8B-/J)	8d/J
2BB-/	8r	(4B-/
.	(8B-/L	.
.	8A-/ 8f/	8c/)
.	8B-/J)	8d/
=4	=4	=4
2EE-/	8r	2e-/
.	(8B-/L	.
.	8G/ 8e-/	.
.	8B-/J)	.
2E-\	8r	4r
.	(8B-/L	.
.	8e-/ 8g/	8b-\
.	8B-/J)	8b-\
=5	=5	=5
2EE-/	8r	8ee-\L
.	(8B-/L	8dd\J
.	8e-/ 8g/	8cc\L
.	8B-/J)	8b-\J
2GG/	8r	8a-/L
.	(8B-/L	8g/J
.	8G/	8f/L
.	8B-/J)	8e-/J
=6	=6	=6
2AA-/	8r	8d/L
.	(8c/L	8c/J
.	8e-/ 8a-/	4c/
.	8c/J)	.
2AA-/	8r	4r
.	(8c/L	.
.	8e-/ 8a-/	8a-/
.	8c/J)	8cc\
=7	=7	=7
2BB-/	8r	4.b-\
.	(8B-/L	.
.	8e-/ 8g/	.
.	8B-/J)	8b-\
4.BB-/	8r	(4b-\
.	(8A-/L	.
.	8d/ 8f/	8cc\)
8BBn/	8A-/J)	8dd\
=8	=8	=8
2C/	8r	2ee-\
.	(8G/L	.
.	8c/ 8e-/	.
.	8G/J)	.
2AA-/	8r	8ff\L
.	(8c/L	8ee-\J
.	8e-/ 8a-/	8dd\L
.	8c/J)	8cc\J
=9	=9	=9
2BB-/	8r	(4cc\
.	(8B-/L	.
.	8e-/ 8g/	8b-\)
.	8B-/J)	8b-\
2BBB-/ 2BB-/	8r	4.b-\
.	(8B-/L	.
.	8A-/ 8d/	.
.	8B-/J)	8d/
=10	=10	=10
2.EE-/ 2.E-/	8r	2e-/
.	(8B-/L	.
.	8G/ 8e-/	.
.	8B-/J	.
.	4G/) 4e-/	4r
==	==	==
*-	*-	*-
!!!ENC: Craig Stuart Sapp
!!!END: 2004/05/26/
!!!EFL: 053/651
